X: 1
T: Old Madera Waltz
O: arr. Jay Ungar & Molly Mason
R: waltz
S: Fiddle Hell Online 2021-4-16
Z: 2021 John Chambers <jc:trillian.mit.edu>
M: 3/4
L: 1/8
K: Gmix
G Bc |\
"G"d2 d3 e | "Gmaj7"ed d4 | "G7"d2 d3 c | "C"_BA GF DF |\
"G"GA Bc de | "C"fg ef dc | "D7"_BA- A2 (3ABA | "G"G3 :|
|: z (3DE^F |\
"G"G2 BG AE | "Am"G2 BG AE | "G/B"G2 BG AG | "C"E4 (3DE^F |\
"Em"G2 BG AE | "C"GA Bc dd- | "D7"d3 c _BA | "G"G3 :|
